X:65
M:4/4
L:1/4
K:F
[F3/2A3/2] [F/A/] [F/B/][F/A/] [C/G/][C/F/] | C2 [C2F2] | [E3/2G3/2] [E/G/] [GB] [FA] | [E4G4] | [E3/2G3/2] [E/G/] [E/G/][E/G/] F/[E/G/] | [F2A2] [F2c2] | [F3/2A3/2] [F/A/] [F/B/][F/A/] [C/G/][C/F/] | D2 [D2F2] | [C3/2E3/2] [C/F/] [E3/2G3/2] [E/A/] | F4 | [A3/2c3/2] [A/c/] [B/d/][A/c/] [^G/=B/][A/c/] | [A2f2] [A2c2] | [F3/2A3/2] [A/c/] [B/d/][A/c/] [G/B/][F/A/] | [E4G4] | [F3/2A3/2] [F/A/] [F/B/][F/A/] [C/G/][C/F/] | D2 [D2F2] | !sintro![C3/2E3/2] [C/F/] [E3/2G3/2] [F/A/] | F4 !eintro!|]
